theory/system/roles/master/master.svg

<svg viewBox="0 0 198.43 198.43" xmlns="http://www.w3.org/2000/svg"><path d="m173.35 48.61-67.35-38.91a14.34 14.34 0 0 0 -13.5 0l-67.43 38.91a14.31 14.31 0 0 0 -6.75 11.69v77.82a14.3 14.3 0 0 0 6.75 11.69c72.93 42.08 68.93 40.6 74.14 40.6s1.26 1.48 74.14-40.6a14.3 14.3 0 0 0 6.75-11.69v-77.82a14.31 14.31 0 0 0 -6.75-11.69zm-74.55-27.61a2.26 2.26 0 0 1 .82 0l60 34.64-60.41 34.82-60.39-34.87zm-67.16 117.69a2 2 0 0 1 -.4-.7v-71.87l61.52 35.52v72.36zm135.14 0-61.11 35.31v-72.36l61.52-35.52v71.88a2.05 2.05 0 0 1 -.41.69z" fill="#6b1687"/></svg>

<svg id="Layer_1" data-name="Layer 1" xmlns="http://www.w3.org/2000/svg" viewBox="0 0 198.43 198.43"><defs><style>.cls-1{fill:#6b1687;}</style></defs><path class="cls-1" d="M173.35,48.61,106,9.7a14.34,14.34,0,0,0-13.5,0L25.07,48.61A14.31,14.31,0,0,0,18.32,60.3v77.82a14.3,14.3,0,0,0,6.75,11.69C98,191.89,94,190.41,99.21,190.41s1.26,1.48,74.14-40.6a14.3,14.3,0,0,0,6.75-11.69V60.3A14.31,14.31,0,0,0,173.35,48.61ZM98.8,21a2.26,2.26,0,0,1,.82,0l60,34.64L99.21,90.46,38.82,55.59ZM31.64,138.69a2,2,0,0,1-.4-.7V66.12l61.52,35.52V174Zm135.14,0L105.67,174V101.64l61.52-35.52V138A2.05,2.05,0,0,1,166.78,138.69Z"/></svg>
